X:1
T:Do You See the Hebrew Captive Kneeling?
T:Philip Paul Bliss, 1876
T:Do You See the Hebrew Captive Kneeling?
T:Public Domain
T:Public Domain
C:Philip Paul Bliss, 1876
Z:Public Domain
%%score ( 1 2 ) ( 3 4 )
L:1/8
M:4/4
K:E
V:1 treble 
V:2 treble 
V:3 bass 
V:4 bass 
V:1
 [EG][EA] | [EB][EB][E^A][EB] [Ec]2 [EB]2 | [EB]2 [EG]4 ([FA][EG]) | %3
w: 1.~Do you|see the He- brew cap- tive|kneel- ing, At *|
w: 2.~Do not|fear to tread the fier- y|fur- nace, Nor *|
w: 3.~Child- ren|of the liv- ing God, take|cour- age, Your *|
 [DF][DF][DF][DF] ([DF][EG]/[DF]/ [CE])[DF] | [EG]6 [EG][EA] | [EB][EB][E^A][EB] [Ec]2 [EB]2 | %6
w: morn- ing, noon and night, * * * to|pray? In his|cham- ber he re- mem- bers|
w: shrink the li- on’s den * * * to|share; For the|God of Dan- iel will de-|
w: great de- liv- ’rance sweet- * * * ly|sing. Set your|fac- es t’ward the hill of|
 [EB]2 [Ge]4 [Ge][Ge] | [Fd]3 [Fd] (d c2) [DB] | [DB]6 ||"^Refrain" B>B | B2 B2 BB [Ac]>[Ad] | %11
w: Zi- on, Though in|ex- ile far * a-||||
w: liv- er, He will|send His an- * gel|Are|your win-|pen toward Je- ru- sa- lem,|
w: Zi- on, Thence to|hail your com- * ing||||
 [Ge]3 [GB] [GB]2 [GB][GB] | [Ac][GB][GB][GB] [^^F^A][GB][^F=A][EG] | [DF]6 [DF]>[DF] | %14
w: |||
w: here, a “lit- tle while”|we stay? For the com- ing of the|King in His|
w: |||
 [EG][DF][EG][FA] [GB]2 [Ee]>[Ee] | [Ee]2 [Ac]4 [Ac][Ac] | [GB] [EG]3 (G F2) [DG] | E6 |] %18
w: ||||
w: glo- ry Are you watch- ing day|by day? * *|||
w: ||||
V:2
 x2 | x8 | x8 | x8 | x8 | x8 | x8 | x4 E3 x | x6 || B>B | B2 B2 BB x2 | x8 | x8 | x8 | x8 | x8 | %16
w: |||||||way.|||||||||
w: |||||||there.||dows o-|Though as cap- tives||||||
w: |||||||King.|||||||||
 x4 D3 x | E6 |] %18
w: ||
w: ||
w: ||
V:3
 E,[E,F,] | [E,G,][E,G,][E,^^F,][E,G,] [E,A,]2 [E,G,]2 | [E,G,]2 [E,B,]4 [E,B,]2 | %3
 [B,,B,][B,,B,][B,,B,][B,,B,] [B,,B,]3 [B,,B,] | [E,B,]6 E,[E,F,] | %5
 [E,G,][E,G,][E,^^F,][E,G,] [E,A,]2 [E,G,]2 | [E,G,]2 [E,B,]4 [E,B,][E,B,] | %7
 [F,B,]3 [F,B,] [F,^A,]3 [F,B,] | [B,,B,]6 || B,>B, | B,2 [A,B,]2 [G,B,][G,B,] [F,B,]>[F,B,] | %11
 [E,B,]3 [E,E] [E,E]2 E,E, | E,E,E,E, E,E,E,[E,G,] | [B,,B,]6 [B,,B,]>[B,,B,] | %14
 B,[A,B,][G,B,][F,B,] [E,E]2 [G,B,]>[G,B,] | [A,C]2 [A,E]4 [A,,E][A,,E] | %16
 [B,,E] [B,,B,]3 (B, A,2) [B,,A,] | [E,G,]6 |] %18
V:4
 E, x | x8 | x8 | x8 | x6 E, x | x8 | x8 | x8 | x6 || B,>B, | B,2 x6 | x6 E,E, | %12
 E,E,E,E, E,E,E, x | x8 | B, x7 | x8 | x4 B,,3 x | x6 |] %18

